X:1
T:The Answer on the Way
T:The Answer on the Way
T:George Blackburn Holsinger
T:Carrie Elizabeth Ellis Breck, 1901
T:Public Domain Courtesy of the Cyber Hymnal™
T:Public Domain Courtesy of the Cyber Hymnal™
C:George Blackburn Holsinger
Z:Public Domain
Z:Courtesy of the Cyber Hymnal™
%%score ( 1 2 ) ( 3 4 )
L:1/8
Q:1/4=100
M:3/4
K:F
V:1 treble 
V:2 treble 
V:3 bass 
V:4 bass 
V:1
 F | [FA]3 [FA]2 [EG] | [FA] [Fc]4 [Fc]/[Fc]/ | [Fd]2 [Fd] [Ec]2 [EB] | [FA]3- [FA]2 [FA]/[FA]/ | %5
w: 1.~Your|prayer shall be|an- swered, Hear the|Fa- ther’s word of|cheer, * “Ere they|
w: 2.~His|word fail- eth|nev- er; Oh, ’tis|bless- èd to be-|lieve; * ’Tis the|
w: 3.~His|grace is un-|mea- sured, Reach- ing|in- to realms a-|far, * And He|
 [FB]3 [Fd]2 [FB] | [FA] [Fc]4 [Fc]/[Fc]/ | [Fc]2 [Fd] [Ec]2 [F=B] | [Ec]3- [Ec]2 [Fc]/[Fc]/ | %9
w: call I will|an- swer, While they’re|speak- ing I will|hear.” * If your|
w: soul that is|stead- fast Won- drous|bless- ings shall re-|ceive. * Yea! His|
w: yearns to be-|stow it Ev- er|where the need- y|are. * Ask, oh!|
 [Af]3 [^Gd]2 [G=B] | [Ac] [FA]4 [FA]/[FA]/ | [EG]2 [Ed] [Ec]2 [EB] | [FA]3- [FA]2 [FA] | %13
w: soul still is|trust- ing, He will|nev- er say thee|nay; * The|
w: prom- ise re-|main- eth Tho- ugh|stars should flee a-|way; * The|
w: ask and be-|liev- ing, God will|hear you when you|pray, * The|
 [FB]3 [Fd]2 [FB] | [FA] [Fc]4 F/[FG]/ | [FA]3 [EA]2 [EG] | F3- F2 z || %17
w: an- swer is|com- ing, It is|now on the|way. *|
w: an- swer is|com- ing, It is|now on the|way. *|
w: an- swer is|com- ing, It is|now on the|way. *|
"^Refrain" [EG]3 [EG]2 [FA] | [GB]6 | [FA]3 [FA]2 [GB] | [Ac]3- [Ac]2 [Fc] | [Fd]3 [Ff]2 [Fd] | %22
w: |||||
w: Now on the|way,|now on the|way, * The|an- swer is|
w: |||||
 [Fc] [FA]4 F/[FG]/ | [FA]3 [EA]2 [EG] | F3- F2 |] %25
w: |||
w: com- ing, It is|now on the|way. *|
w: |||
V:2
 F | x6 | x6 | x6 | x6 | x6 | x6 | x6 | x6 | x6 | x6 | x6 | x6 | x6 | x5 F/ x/ | x6 | F3- F2 x || %17
 x6 | x6 | x6 | x6 | x6 | x5 F/ x/ | x6 | F3- F2 |] %25
V:3
 [F,A,] | [F,C]3 [F,C]2 [C,C] | [F,C] [F,A,]4 [F,A,]/[F,A,]/ | [B,,B,]2 [B,,B,] [C,G,]2 [C,C] | %4
w: ||||
 [F,C]3- [F,C]2 [F,C]/[F,C]/ | [B,,D]3 [B,,B,]2 [B,,D] | [F,C] [F,A,]4 [F,A,]/[F,A,]/ | %7
w: |||
 [F,A,]2 [D,A,] G,2 G, | [C,G,]3- [C,G,]2 [F,A,]/[F,A,]/ | [F,C]3 [F,=B,]2 [F,D] | %10
w: * * Now on|||
 [F,F] [F,C]4 [F,C]/[F,C]/ | [C,C]2 [C,B,] [C,G,]2 [C,C] | [F,C]3- [F,C]2 [F,C] | %13
w: |||
 [B,,D]3 [B,,B,]2 [B,,D] | [F,C] [F,A,]4 [A,,C]/[B,,D]/ | [C,C]3 [C,C]2 [C,B,] | %16
w: |||
 [F,A,]3- [F,A,]2 z || z6 | [C,C][C,C] [C,C] [C,C]3 | z6 | [F,C][F,C] [F,C] [F,C]2 [F,A,] | %21
w: ||the way, now on||the way, * * *|
 [B,,B,]3 [B,,D]2 [B,,B,] | [F,A,] [F,C]4 [A,,C]/[=B,,D]/ | [C,C]3 [C,C]2 [C,B,] | %24
w: |||
 [F,A,]3- [F,A,]2 |] %25
w: |
V:4
 x | x6 | x6 | x6 | x6 | x6 | x6 | x3 G,2 G, | x6 | x6 | x6 | x6 | x6 | x6 | x6 | x6 | x6 || x6 | %18
 x6 | x6 | x6 | x6 | x6 | x6 | x5 |] %25

